images/usecases/health-care/rehabilitation-center-1.svg

<svg width="261" height="322" viewBox="0 0 261 322" fill="none" xmlns="http://www.w3.org/2000/svg">
<rect x="63.75" y="120.75" width="186.5" height="186.5" rx="93.25" stroke="#91A3BE" stroke-width="1.5"/>
<path d="M111 258.624H117.26M203 258.624H196.551M117.26 258.624H136.836M117.26 258.624V238.614M136.836 204.847L117.26 217.746V229.519M136.836 204.847V180.403L158.21 169.375L178.22 181.768V204.847M136.836 204.847V229.519M136.836 258.624H178.22M136.836 258.624V238.614M178.22 258.624H196.551M178.22 258.624V238.614M196.551 258.624V238.614M178.22 204.847L196.551 217.746V229.519M178.22 204.847V229.519M136.836 234.408H148.274M136.836 234.408V229.519M136.836 234.408V238.614M178.22 234.408H166.624M178.22 234.408V229.519M178.22 234.408V238.614M117.26 229.519H136.836M117.26 229.519V238.614M117.26 238.614H136.836M178.22 229.519H196.551M196.551 229.519V238.614M178.22 238.614H196.551" stroke="#305680" stroke-width="4.55258" stroke-linecap="round" stroke-linejoin="round"/>
<path d="M164.464 258.625V243.997C164.464 243.787 164.294 243.617 164.084 243.617H151.2C150.99 243.617 150.82 243.787 150.82 243.997V258.625" stroke="#305680" stroke-width="4.55258"/>
<circle cx="157.642" cy="234.522" r="2.72865" fill="#305680"/>
<circle cx="157.568" cy="186.088" r="2.72865" fill="#305680"/>
<path d="M156.772 194.501V204.165H164.39L170.415 213.261M156.772 194.501H164.39M156.772 194.501C144.266 195.297 145.516 217.24 162.002 212.238" stroke="#305680" stroke-width="4.55258" stroke-linecap="round" stroke-linejoin="round"/>
<path d="M0 212H43" stroke="#91A3BE" stroke-width="1.5"/>
<line x1="150.75" y1="24" x2="150.75" y2="104" stroke="#91A3BE" stroke-width="1.5"/>
<path d="M42.0002 212.725C41.9706 198.346 44.7736 184.101 50.2492 170.804C55.7247 157.508 63.7655 145.42 73.9126 135.231C84.0597 125.042 96.1142 116.952 109.388 111.422C122.662 105.891 136.895 103.03 151.275 103L151.278 104.552C137.102 104.581 123.071 107.402 109.985 112.854C96.8993 118.306 85.0156 126.282 75.0123 136.327C65.0091 146.371 57.0822 158.287 51.6843 171.395C46.2864 184.503 43.5231 198.546 43.5523 212.722L42.0002 212.725Z" fill="#91A3BE"/>
<circle cx="151" cy="12" r="11.25" fill="#F7F9FC" stroke="#91A3BE" stroke-width="1.5"/>
</svg>

<svg width="261" height="322" fill="none" xmlns="http://www.w3.org/2000/svg"><rect x="63.75" y="120.75" width="186.5" height="186.5" rx="93.25" stroke="#91A3BE" stroke-width="1.5"/><path d="M111 258.624h6.26m85.74 0h-6.449m-79.291 0h19.576m-19.576 0v-20.01m19.576-33.767-19.576 12.899v11.773m19.576-24.672v-24.444l21.374-11.028 20.01 12.393v23.079m-41.384 0v24.672m0 29.105h41.384m-41.384 0v-20.01m41.384 20.01h18.331m-18.331 0v-20.01m18.331 20.01v-20.01m-18.331-33.767 18.331 12.899v11.773m-18.331-24.672v24.672m-41.384 4.889h11.438m-11.438 0v-4.889m0 4.889v4.206m41.384-4.206h-11.596m11.596 0v-4.889m0 4.889v4.206m-60.96-9.095h19.576m-19.576 0v9.095m0 0h19.576m41.384-9.095h18.331m0 0v9.095m-18.331 0h18.331" stroke="#305680" stroke-width="4.553" stroke-linecap="round" stroke-linejoin="round"/><path d="M164.464 258.625v-14.628a.38.38 0 0 0-.38-.38H151.2a.38.38 0 0 0-.38.38v14.628" stroke="#305680" stroke-width="4.553"/><circle cx="157.642" cy="234.522" r="2.729" fill="#305680"/><circle cx="157.568" cy="186.088" r="2.729" fill="#305680"/><path d="M156.772 194.501v9.664h7.618l6.025 9.096m-13.643-18.76h7.618m-7.618 0c-12.506.796-11.256 22.739 5.23 17.737" stroke="#305680" stroke-width="4.553" stroke-linecap="round" stroke-linejoin="round"/><path d="M0 212h43M150.75 24v80" stroke="#91A3BE" stroke-width="1.5"/><path d="M42 212.725a109.504 109.504 0 0 1 67.388-101.303A109.495 109.495 0 0 1 151.275 103l.003 1.552a107.943 107.943 0 0 0-99.594 66.843 107.95 107.95 0 0 0-8.132 41.327l-1.552.003Z" fill="#91A3BE"/><circle cx="151" cy="12" r="11.25" fill="#F7F9FC" stroke="#91A3BE" stroke-width="1.5"/></svg>
